X:1
T:On Green Dolphin Street
C:Bronislau Kaper
Z:All Rights Reserved
L:1/4
M:2/2
K:C
V:1 treble 
V:1
"Cmaj7" c2 c2- | c2 (3B G E |"Cm7" _B4- | B4 |"D7/C" A2 A2- | A2"Db/C" (3_A F _D |"Cmaj7" G4- | %7
w: Lov- er,|* one love- ly|day.||Love came,|* plan- ning to|stay.|
 G4 |"Dm7" G2 D E |"G7" F G"G7#5b9" _A _B |"Cmaj7" G2 G2- | G3 G |"Fm7" _B F2 G | %13
w: |Green Dol- phin|Street sup- plied the|set- ting,|* the|set- ting for|
"Bb7" _A _B"Bb7#5b9" _c3/2 _d/ |"Ebmaj7" _B2 B2- | B2"G7" =B2 |"Cmaj7" c2 c2- | c2 (3B G E | %18
w: nights be- yond for-|get- ting.|* And|through these|* mo- ments a-|
"Cm7" _B4- | B4 |"D7/C" A2 A2- | A2"Db/C" (3_A F _D |"Cmaj7" G4- | G4 |"Dm7" G2"Dm/C" D E | %25
w: part,||mem- 'ries|* live in my|heart.||When I re-|
"Bm7b5" F G"E7b9" ^G e |"Am7" d2"Am/G" c2 |"F#m7b5" C D"B7" _E B |"Em7" A2"A7" G2- | %29
w: call the love I|found on,|I could kiss the|ground On|
"Dm7" G G"G7" G G |1"Cmaj7" G4- |"Dm7" G2-"G7" G z :|2"Cmaj7" G4- | G3 z |] %34
w: * Green Dol- phin|Street.||Street.||

